packages/ffe-icons/icons/open/400/sm/format_h1.svg

<svg xmlns="http://www.w3.org/2000/svg" height="20" viewBox="0 -960 960 960" width="20"><path d="M228.21-288q-15.21 0-25.71-10.35T192-324v-312q0-15.3 10.29-25.65Q212.58-672 227.79-672t25.71 10.35Q264-651.3 264-636v120h168v-120q0-15 10.29-25.5t25.5-10.5q15.21 0 25.71 10.35T504-636v312q0 15.3-10.29 25.65Q483.42-288 468.21-288t-25.71-10.35Q432-308.7 432-324v-120H264v120q0 15-10.29 25.5t-25.5 10.5Zm504 0q-15.21 0-25.71-10.35T696-324v-276h-60q-15.3 0-25.65-10.29Q600-620.58 600-635.79t10.35-25.71Q620.7-672 636-672h96q15.3 0 25.65 10.35Q768-651.3 768-636v312q0 15.3-10.29 25.65Q747.42-288 732.21-288Z"/></svg>

<svg xmlns="http://www.w3.org/2000/svg" height="20" viewBox="0 -960 960 960" width="20"><path d="M228.211-288Q213-288 202.5-298.35 192-308.7 192-324v-312q0-15.3 10.289-25.65 10.29-10.35 25.5-10.35Q243-672 253.5-661.65 264-651.3 264-636v120h168v-120q0-15 10.289-25.5 10.29-10.5 25.5-10.5Q483-672 493.5-661.65 504-651.3 504-636v312q0 15.3-10.289 25.65-10.29 10.35-25.5 10.35Q453-288 442.5-298.35 432-308.7 432-324v-120H264v120q0 15-10.289 25.5-10.29 10.5-25.5 10.5Zm504 0Q717-288 706.5-298.35 696-308.7 696-324v-276h-60q-15.3 0-25.65-10.289-10.35-10.29-10.35-25.5Q600-651 610.35-661.5 620.7-672 636-672h96q15.3 0 25.65 10.35Q768-651.3 768-636v312q0 15.3-10.289 25.65-10.29 10.35-25.5 10.35Z"/></svg>
